src/main/resources/category.svg

<svg viewBox="0 0 24 24" xmlns="http://www.w3.org/2000/svg"><path d="m19.75 6.357h-2.426v-1.627c0-1.23-1.01-2.23-2.25-2.23h-6.147c-1.24 0-2.25 1-2.25 2.23v1.627h-2.427c-1.24 0-2.25 1-2.25 2.23v10.683c0 1.23 1.01 2.23 2.25 2.23h15.5c1.24 0 2.25-1 2.25-2.23v-10.683c.002-1.23-1.008-2.23-2.25-2.23zm-11.574-1.627c0-.41.337-.744.75-.744h6.144c.414 0 .75.333.75.743v1.627h-7.642v-1.626zm-3.926 3.112h15.5c.413 0 .75.333.75.743v3h-17v-3c0-.41.337-.743.75-.743zm15.5 12.17h-15.5c-.413 0-.75-.333-.75-.742v-6.197h17v6.198c0 .41-.338.744-.75.744z" fill="#536571"/></svg>

<svg version="1.1" viewBox="0,0,24,24" xmlns="http://www.w3.org/2000/svg">
    <path
        d="M19.75 6.357h-2.426V4.73c0-1.23-1.01-2.23-2.25-2.23H8.927c-1.24 0-2.25 1-2.25 2.23v1.627H4.25c-1.24 0-2.25 1-2.25 2.23V19.27c0 1.23 1.01 2.23 2.25 2.23h15.5c1.24 0 2.25-1 2.25-2.23V8.587c.002-1.23-1.008-2.23-2.25-2.23zM8.176 4.73c0-.41.337-.744.75-.744h6.144c.414 0 .75.333.75.743v1.627H8.178V4.73zM4.25 7.842h15.5c.413 0 .75.333.75.743v3h-17v-3c0-.41.337-.743.75-.743zm15.5 12.17H4.25c-.413 0-.75-.333-.75-.742v-6.197h17v6.198c0 .41-.338.744-.75.744z"
        fill="#536571"/>
</svg>
